X: 42821
T: Why So
R: jig
M: 6/8
K: Dmajor
dfd AFA|DFA DFA|d2d AFA|BEF GFE|
d2d AFA|def gfg|agf gfe|fef gfe:|

